dist/img/svg/smile2_icon.svg

<svg version="1.2" baseProfile="tiny-ps" xmlns="http://www.w3.org/2000/svg" width="88" height="87"><defs><clipPath clipPathUnits="userSpaceOnUse" id="cp1"><path d="M0 0h88v87H0z"/></clipPath></defs><style/><g id="Page 1" clip-path="url(#cp1)"><path id="Path 1" fill-rule="evenodd" d="M87.59 43.26c0 12.1-4.21 22.36-12.75 31C66.31 82.79 55.94 87 43.85 87c-12.1 0-22.47-4.21-31-12.74C4.32 65.62 0 55.36 0 43.26c0-12.1 4.32-22.46 12.85-31 8.53-8.53 18.9-12.74 31-12.74 12.09 0 22.46 4.21 30.99 12.74 8.54 8.54 12.75 18.9 12.75 31zm-82.41 0c0 10.69 3.78 19.76 11.34 27.32 7.56 7.56 16.64 11.34 27.33 11.34 10.69 0 19.76-3.78 27.32-11.34 7.45-7.56 11.23-16.63 11.23-27.32 0-10.69-3.78-19.76-11.23-27.32C63.61 8.38 54.54 4.6 43.85 4.6c-10.69 0-19.77 3.78-27.33 11.34C8.96 23.5 5.18 32.57 5.18 43.26zm29.81-10.15c0 3.02-2.59 5.61-5.72 5.61-3.03 0-5.62-2.59-5.62-5.61 0-3.13 2.59-5.62 5.62-5.62 3.13 0 5.72 2.49 5.72 5.62zm28.95 0c0 3.02-2.49 5.61-5.62 5.61s-5.62-2.59-5.62-5.61c0-4.97 6.16-7.45 9.62-4 1.08 1.08 1.62 2.38 1.62 4zm-10.7 36.5c-6.26 2.16-12.52 2.16-18.79 0-6.37-2.05-11.34-5.94-15.12-11.66-.54-.76-.32-1.41.43-1.95l1.95-1.29c.75-.54 1.4-.33 1.94.43 4.75 7.24 11.45 10.8 20.2 10.8s15.44-3.56 20.19-10.8c.44-.76 1.08-.86 1.95-.43L67.93 56c.76.54.87 1.19.33 1.95-3.78 5.72-8.75 9.61-15.02 11.66z" fill="#2c2e35"/></g></svg>

<svg version="1.2" baseProfile="tiny-ps" xmlns="http://www.w3.org/2000/svg" viewBox="0 0 88 87" width="88" height="87">
	<title>Page 1</title>
	<defs>
		<clipPath clipPathUnits="userSpaceOnUse" id="cp1">
			<path d="M0 0L88 0L88 87L0 87Z" />
		</clipPath>
	</defs>
	<style>
		tspan { white-space:pre }
		.shp0 { fill: #2c2e35 } 
	</style>
	<g id="Page 1" clip-path="url(#cp1)">
		<path id="Path 1" fill-rule="evenodd" class="shp0" d="M87.59 43.26C87.59 55.36 83.38 65.62 74.84 74.26C66.31 82.79 55.94 87 43.85 87C31.75 87 21.38 82.79 12.85 74.26C4.32 65.62 0 55.36 0 43.26C0 31.16 4.32 20.8 12.85 12.26C21.38 3.73 31.75 -0.48 43.85 -0.48C55.94 -0.48 66.31 3.73 74.84 12.26C83.38 20.8 87.59 31.16 87.59 43.26ZM5.18 43.26C5.18 53.95 8.96 63.02 16.52 70.58C24.08 78.14 33.16 81.92 43.85 81.92C54.54 81.92 63.61 78.14 71.17 70.58C78.62 63.02 82.4 53.95 82.4 43.26C82.4 32.57 78.62 23.5 71.17 15.94C63.61 8.38 54.54 4.6 43.85 4.6C33.16 4.6 24.08 8.38 16.52 15.94C8.96 23.5 5.18 32.57 5.18 43.26ZM34.99 33.11C34.99 36.13 32.4 38.72 29.27 38.72C26.24 38.72 23.65 36.13 23.65 33.11C23.65 29.98 26.24 27.49 29.27 27.49C32.4 27.49 34.99 29.98 34.99 33.11ZM63.94 33.11C63.94 36.13 61.45 38.72 58.32 38.72C55.19 38.72 52.7 36.13 52.7 33.11C52.7 28.14 58.86 25.66 62.32 29.11C63.4 30.19 63.94 31.49 63.94 33.11ZM53.24 69.61C46.98 71.77 40.72 71.77 34.45 69.61C28.08 67.56 23.11 63.67 19.33 57.95C18.79 57.19 19.01 56.54 19.76 56L21.71 54.71C22.46 54.17 23.11 54.38 23.65 55.14C28.4 62.38 35.1 65.94 43.85 65.94C52.6 65.94 59.29 62.38 64.04 55.14C64.48 54.38 65.12 54.28 65.99 54.71L67.93 56C68.69 56.54 68.8 57.19 68.26 57.95C64.48 63.67 59.51 67.56 53.24 69.61Z" />
	</g>
</svg>
